src/assets/images/volume-mute-black.svg

<svg viewBox="0 0 512 512" xmlns="http://www.w3.org/2000/svg"><path d="m454.63 256 55.03-55.03c3.12-3.12 3.12-8.19 0-11.31l-11.31-11.31c-3.12-3.12-8.19-3.12-11.31 0l-55.04 55.02-55.03-55.03c-3.12-3.12-8.19-3.12-11.31 0l-11.31 11.31c-3.12 3.12-3.12 8.19 0 11.31l55.02 55.04-55.03 55.03c-3.12 3.12-3.12 8.19 0 11.31l11.31 11.31c3.12 3.12 8.19 3.12 11.31 0l55.04-55.02 55.03 55.03c3.12 3.12 8.19 3.12 11.31 0l11.31-11.31c3.12-3.12 3.12-8.19 0-11.31zm-222.82-192c-5.91 0-11.92 2.18-16.78 7.05l-88.97 88.95h-102.06c-13.26 0-24 10.74-24 24v144c0 13.25 10.74 24 24 24h102.06l88.97 88.95c4.87 4.87 10.88 7.05 16.78 7.05 12.33 0 24.19-9.52 24.19-24.02v-335.96c0-14.51-11.87-24.02-24.19-24.02zm-7.81 340.67-75.32-75.3-9.37-9.37h-107.31v-128h107.31l9.37-9.37 75.32-75.3z"/></svg>

<svg aria-hidden="true" focusable="false" data-prefix="fal" data-icon="volume-mute" class="svg-inline--fa fa-volume-mute fa-w-16" role="img" xmlns="http://www.w3.org/2000/svg" viewBox="0 0 512 512"><path fill="#000" d="M454.63 256l55.03-55.03c3.12-3.12 3.12-8.19 0-11.31l-11.31-11.31c-3.12-3.12-8.19-3.12-11.31 0L432 233.37l-55.03-55.03c-3.12-3.12-8.19-3.12-11.31 0l-11.31 11.31c-3.12 3.12-3.12 8.19 0 11.31L409.37 256l-55.03 55.03c-3.12 3.12-3.12 8.19 0 11.31l11.31 11.31c3.12 3.12 8.19 3.12 11.31 0L432 278.63l55.03 55.03c3.12 3.12 8.19 3.12 11.31 0l11.31-11.31c3.12-3.12 3.12-8.19 0-11.31L454.63 256zM231.81 64c-5.91 0-11.92 2.18-16.78 7.05L126.06 160H24c-13.26 0-24 10.74-24 24v144c0 13.25 10.74 24 24 24h102.06l88.97 88.95c4.87 4.87 10.88 7.05 16.78 7.05 12.33 0 24.19-9.52 24.19-24.02V88.02C256 73.51 244.13 64 231.81 64zM224 404.67l-75.32-75.3-9.37-9.37H32V192h107.31l9.37-9.37 75.32-75.3v297.34z"></path></svg>
